X: 31992
T: Peekaboo Loop
R: slip jig
M: 9/8
K: Dmajor
FAd fed cBA|GFG GBG E3|c2e efe cBA|A2A cBA dAG|
FAd fed cBA|GFG GBG E3|Ace ged cBA|A2A cBA def|
a2f fed fed|B2e efe edc|g2e edc edc|A2A cBA def|
a2f fed fed|B2e efe edc|g2e edc edc|A2A cBA dAG|
F2F dAF dAF|G2G dBG dBG|A2A eAf g2g|e2e edc dAG|
F2F dAF dAF|G2G dBG dBG|A2A eAA fAA|gg2 edc dAG|

